X: 1809
T: Archie Menzie's
R: reel
M: 4/4
K: Gmajor
GF|G2 DG BGFG|Bdef gdB^G|A2 EA cAEA|(3Bcd ef gedB|
G2 DG BGDG|Bdef gdBG|ceAc BdGB|AFDF G2:|
GF|GGDG BGFG|DGBA GFE^G|A2 EA cA^GA|EAcB AGFE|
G2 DG BGFG|DGBA GFED|ceAc BdGB|AFDF G2:|

